icon-themes/breeze_svg/cmd/sc_pasteunformatted.svg

<svg viewBox="0 0 16 16" xmlns="http://www.w3.org/2000/svg"><path d="m5 2v1h-2v11h4 1 4 1v-1-4-6h-2v-1zm-1 2h1 6 1v5 4h-4-1-3zm1 1v1h6v-1zm0 2v1h5v-1zm0 2v1h3v-1zm4 2v1h2v-1z" fill="#4d4d4d"/></svg>

<svg viewBox="0 0 16 16" xmlns="http://www.w3.org/2000/svg">
   <path
   style="fill:#4d4d4d"
   d="M 5 2 L 5 3 L 3 3 L 3 14 L 7 14 L 8 14 L 12 14 L 13 14 L 13 13 L 13 9 L 13 3 L 11 3 L 11 2 L 5 2 z M 4 4 L 5 4 L 11 4 L 12 4 L 12 9 L 12 13 L 8 13 L 7 13 L 4 13 L 4 4 z M 5 5 L 5 6 L 11 6 L 11 5 L 5 5 z M 5 7 L 5 8 L 10 8 L 10 7 L 5 7 z M 5 9 L 5 10 L 8 10 L 8 9 L 5 9 z M 9 11 L 9 12 L 11 12 L 11 11 L 9 11 z "
   />
</svg>
